X:72
T:Meidans
T:Schoon Lief
C:Traditional
O:Vlaanderen
B:Dans nu 2
Z:Bert Van Vreckem <http://flanders.blackmill.net/music/>
Q:1/4=66
M:3/4
L:1/8
% TODO: Ok, hier is vanalles misgelopen. Originele versie verloren, dus dat wordt
% leuk om te verbeteren...
K:Am
E|"Am"AB c3 B/A/|"E7"^G2 "Am"A z z A |:"Am"A E A3 B|"E7"B c "Am"A3 c|"Dm"c d/c/ B3 A|
w:* ***** ** 1.~~Schoon lief, hoe ligt gij hier en slaapt, in u-wen _ eer-sten
"E7"A2 B2 z B|B B B3 B|"Am"c A "E7"^G3 E|"Am"A B c3 B/A/| "E7"^G z "Am"A:|
w:dro-me? Wil op-staan en de mei ont-vaan, hij staat hier al zo scho-ne. *
%
W:Schoon lief, hoe ligt gij hier en slaapt,
W:in uwen eersten drome?
W:Wil opstaan en den mei ontvaan,
W:Hij staat hier al zo schone
W:
W:Ik zou voor genen mei opstaan
W:mijn vensterken niet ontsluiten.
W:Plant uwen mei waar't u gerei
W:plant uwen mei daarbuiten
W:
W:Waar zou'k hem planten of waar doen?
W:'t Is al op 's heeren strate.
W:De winternacht is lang en koud,
W:hij zou zijn bloeien laten.
W:
W:Schoon lief, laat hij zijn bloeien staan,
W:wij zullen hem begraven
W:op 't kerkhof bij den eglantier.
W:Zijn graf zal rozekens dragen.
W:
W:Schoon lief, en om die rozekens
W:zal 't nachtegaalken springen,
W:en voor ons bei in elken mei
W:zijn schoonste liedekens zingen.

